azure-patterns/svg-gear-check.svg

<svg xmlns="http://www.w3.org/2000/svg" viewBox="0 0 156 156">
                                
                            
    <path d="M148.571 85.2551V70.4227H133.269C131.956 60.617 128.093 51.6285 122.373 44.1256L133.194 33.3047L122.72 22.8304L111.899 33.6513C104.396 27.9313 95.4076 24.0685 85.6019 22.7561V7.42847H70.7695V22.7313C60.9638 24.0437 51.9753 27.9066 44.4724 33.6266L33.6514 22.8056L23.1772 33.2799L33.9981 44.1008C28.2781 51.6037 24.4153 60.5923 23.1029 70.398H7.75049V85.2304H23.0533C24.3657 95.0361 28.2286 104.025 33.9486 111.528L23.1276 122.348L33.6019 132.823L44.4229 122.002C51.9257 127.722 60.9143 131.585 70.72 132.897V148.2H85.5524V132.897C95.3581 131.585 104.347 127.722 111.85 122.002L122.67 132.823L133.145 122.348L122.324 111.528C128.044 104.025 131.907 95.0361 133.219 85.2304H148.571V85.2551ZM37.44 77.8266C37.44 66.9561 41.6743 56.7294 49.3752 49.0285C57.0762 41.3275 67.3029 37.0932 78.1734 37.0932C89.0438 37.0932 99.2705 41.3275 106.971 49.0285C114.672 56.7294 118.907 66.9561 118.907 77.8266C118.907 88.697 114.648 98.9485 106.971 106.625C99.2705 114.326 89.0438 118.56 78.1734 118.56C67.3029 118.56 57.0762 114.326 49.3752 106.625C41.6743 98.9485 37.44 88.7218 37.44 77.8266Z" fill="#0078D4"></path>
    <path d="M78.1734 113.112C97.6612 113.112 113.459 97.3145 113.459 77.8267C113.459 58.339 97.6612 42.541 78.1734 42.541C58.6857 42.541 42.8877 58.339 42.8877 77.8267C42.8877 97.3145 58.6857 113.112 78.1734 113.112Z" fill="#50E6FF"></path>
    <path d="M70.3239 96.0513L57.4478 83.1751L62.6973 77.9256L70.3239 85.5523L93.6497 62.2266L98.8992 67.4761L70.3239 96.0513Z" fill="black"></path>
</svg>

<svg xmlns="http://www.w3.org/2000/svg" viewBox="0 0 156 156"><path d="M148.571 85.255V70.423h-15.302a55.453 55.453 0 0 0-10.896-26.297l10.821-10.821L122.72 22.83l-10.821 10.821a55.447 55.447 0 0 0-26.297-10.895V7.428H70.769v15.303a55.446 55.446 0 0 0-26.297 10.896l-10.82-10.821L23.176 33.28 33.998 44.1a55.447 55.447 0 0 0-10.895 26.298H7.75V85.23h15.303a55.449 55.449 0 0 0 10.896 26.298l-10.821 10.82 10.474 10.475 10.82-10.821a55.442 55.442 0 0 0 26.298 10.895V148.2h14.832v-15.303a55.444 55.444 0 0 0 26.298-10.895l10.82 10.821 10.475-10.475-10.821-10.82a55.444 55.444 0 0 0 10.895-26.298h15.352v.025zM37.44 77.827c0-10.87 4.234-21.098 11.935-28.798 7.701-7.702 17.928-11.936 28.798-11.936 10.87 0 21.097 4.234 28.798 11.935 7.701 7.701 11.936 17.928 11.936 28.799 0 10.87-4.259 21.121-11.936 28.798-7.7 7.701-17.927 11.935-28.798 11.935-10.87 0-21.097-4.234-28.798-11.935-7.7-7.677-11.935-17.903-11.935-28.798z" fill="#0078D4"/><path d="M78.173 113.112c19.488 0 35.286-15.797 35.286-35.285 0-19.488-15.798-35.286-35.286-35.286-19.487 0-35.285 15.798-35.285 35.286 0 19.487 15.798 35.285 35.285 35.285z" fill="#50E6FF"/><path d="M70.324 96.051L57.448 83.175l5.25-5.25 7.626 7.627L93.65 62.227l5.25 5.25L70.323 96.05z"/></svg>
